!!!OTL: Die schoene Muellerin. / (Die Eselin im Bette des Domherrn.)
!!!ARE: Europa, Mitteleuropa, Deutschland
!!!SCT: A0044
!!!TXL: @@GMH
!!!YEM: Copyright 1995, estate of Helmut Schaffrath.
**kern	**text
*M4/2	*
*met(c|)	*
*clefC3	*
*k[]	*
*C:ion	*
=1	=1
!LO:TX:a:t=jon.	!
1ryy	.
2ryy	.
{2c	Jch
=2	=2
2c	weyß
2e	ein
2d	hüb-
2c	-ſche
=3	=3
2B	mül-
2B	-le-
2A}	-rin,
{2B	die
=4	=4
2c	daucht
2G	ſich
2A	hübſch
2B	vnd
=5	=5
1c	klug,
2r}	.
{2c	Vom
=6	=6
2c	o-
2e	-ber-
2d	-landt
2c	bis
=7	=7
2B	an
2B	den
2A}	Rein,
{2B	wo
=8	=8
2c	ſind
2G	man
2A	j-
2B	-ren
=9	=9
*lig	*
2.c	fug?
4d	.
2e}	.
*Xlig	*
{2c	in
=10	=10
2d	ei-
2c	-nem
2B	dorff
2A	ſie
=11	=11
1G	ſaß,
2r}	.
{2B	gen
=12	=12
2c	marck
2B	do
2c	thet
2A	ſie
=13	=13
1G	lauf-
2E}	-fen,
{2B	thet
=14	=14
2c	jr-
2c	hü-
2d	-ner
2d	ver-
=15	=15
1e	-kauf-
2d}	-fen,
{2f	als
=16	=16
2e	jr
2c	ge-
2d	-won-
2B	-heit
=17	=17
0cll}	was.
==	==
!!!GTL: Balladen und Romanzen (erzählende Volkslieder)
!!!AGN: Romanze, Ballade, Lied
!! Melodie bei Joh. Ott III. 1544 No. 18.
!!!ONB: ESAC (Essen Associative Code) Database: ALTDEU
!!!AMT: simple quadruple
!!!AIN: vox
!!!EED: Helmut Schaffrath
!!!EEV: 1.0
!!!RDF**kern: l = terminal long
!!!AMD: Ionian
!!!URL-scan: https://rosdok.uni-rostock.de/mcrviewer/recordIdentifier/rosdok_ppn738218359/iview2/phys_0195.iview2?x=-425.8853427895981&y=1109.6226950454293&scale=0.4823261117445838&rotation=0&layout=singlePageLayout&logicalDiv=log_0007
!!!ENC: Anna Maria Matuszewska
!!!EEV: 2024/19/02
*-	*-
